modules/feathericon/icons/check-verified.svg

<?xml version="1.0" encoding="UTF-8"?>
<svg width="14px" height="14px" viewBox="0 0 14 14" version="1.1" xmlns="http://www.w3.org/2000/svg" xmlns:xlink="http://www.w3.org/1999/xlink">
    <!-- Generator: sketchtool 48.1 (47250) - http://www.bohemiancoding.com/sketch -->
    <title>check-verified</title>
    <desc>Created with sketchtool.</desc>
    <defs></defs>
    <g id="web-app" stroke="none" stroke-width="1" fill="none" fill-rule="evenodd">
        <g id="check-verified" fill="#000000">
            <path d="M0,7 C0,6.1423473 0.539844527,5.41078205 1.29826826,5.12656957 C1.39533567,4.83097118 1.51474935,4.54550678 1.65451134,4.27217435 C1.55498477,4.03458727 1.5,3.77371482 1.5,3.5 C1.5,2.3954305 2.3954305,1.5 3.5,1.5 C3.77371482,1.5 4.03458727,1.55498477 4.27217435,1.65451134 C4.54550678,1.51474935 4.83097118,1.39533567 5.12656957,1.29826826 C5.41078205,0.539844527 6.1423473,0 7,0 C7.8576527,0 8.58921795,0.539844527 8.87343043,1.29826826 C9.16902882,1.39533567 9.45449322,1.51474935 9.72782565,1.65451134 C9.96541273,1.55498477 10.2262852,1.5 10.5,1.5 C11.6045695,1.5 12.5,2.3954305 12.5,3.5 C12.5,3.77371482 12.4450152,4.03458727 12.3454887,4.27217435 C12.4852506,4.54550678 12.6046643,4.83097118 12.7017317,5.12656957 C13.4601555,5.41078205 14,6.1423473 14,7 C14,7.8576527 13.4601555,8.58921795 12.7017317,8.87343043 C12.6046643,9.16902882 12.4852506,9.45449322 12.3454887,9.72782565 C12.4450152,9.96541273 12.5,10.2262852 12.5,10.5 C12.5,11.6045695 11.6045695,12.5 10.5,12.5 C10.2262852,12.5 9.96541273,12.4450152 9.72782565,12.3454887 C9.45449322,12.4852506 9.16902882,12.6046643 8.87343043,12.7017317 C8.58921795,13.4601555 7.8576527,14 7,14 C6.1423473,14 5.41078205,13.4601555 5.12656957,12.7017317 C4.83097118,12.6046643 4.54550678,12.4852506 4.27217435,12.3454887 C4.03458727,12.4450152 3.77371482,12.5 3.5,12.5 C2.3954305,12.5 1.5,11.6045695 1.5,10.5 C1.5,10.2262852 1.55498477,9.96541273 1.65451134,9.72782565 C1.51474935,9.45449322 1.39533567,9.16902882 1.29826826,8.87343043 C0.539844527,8.58921795 0,7.8576527 0,7 Z M4,6 L3,7 L6,10 L11,5 L10,4 L6,8 L4,6 Z" id="Shape"></path>
        </g>
    </g>
</svg>

<svg width="14" height="14" xmlns="http://www.w3.org/2000/svg"><path d="M0 7a2 2 0 0 1 1.298-1.873c.097-.296.217-.581.357-.855a2 2 0 0 1 2.618-2.618c.273-.14.558-.259.854-.356a2 2 0 0 1 3.746 0c.296.097.581.217.855.357a2 2 0 0 1 2.618 2.618c.14.273.259.558.356.854a2 2 0 0 1 0 3.746 5.963 5.963 0 0 1-.357.855 2 2 0 0 1-2.618 2.618c-.273.14-.558.259-.854.356a2 2 0 0 1-3.746 0 5.963 5.963 0 0 1-.855-.357 2 2 0 0 1-2.618-2.618 5.963 5.963 0 0 1-.356-.854A2 2 0 0 1 0 7zm4-1L3 7l3 3 5-5-1-1-4 4-2-2z" fill="#000" fill-rule="evenodd"/></svg>
